X:1
T:The Hunter's House
C:Ed Reavey, arr. LN
L:1/8
Q:1/4=120
M:4/4
K:G
|: B2 dB cA^FA | G2 BG DGBG | B2 dB cAFA | GBAG GF ED |
DG G/G/G BGFG | BGAF GABc | defg agfd |1 cAFA G2 GA :|2 cAFA G2 Bc ||
|: d2 gB aBgB | B2 gf edcB | Aa a/a/a ba a/a/a | df af gfed | 
B2 gB aBgB | B2 gf edcB | cBAg fgaf | gdBd cAFA :| 
